Newaita-dark/apps/16/kopete.svg

<?xml version="1.0" encoding="UTF-8"?>
<svg xmlns="http://www.w3.org/2000/svg" xmlns:xlink="http://www.w3.org/1999/xlink" width="16pt" height="16pt" viewBox="0 0 16 16" version="1.1">
<defs>
<radialGradient id="radial0" gradientUnits="userSpaceOnUse" cx="450.908936" cy="189.579361" fx="450.908936" fy="189.579361" r="21.166656" gradientTransform="matrix(-0.0000000870852,-0.0390662,0.0703192,-0.0000000507693,-1.589028,31.797666)">
<stop offset="0" style="stop-color:rgb(0%,0%,0%);stop-opacity:0.313725;"/>
<stop offset="0.222222" style="stop-color:rgb(0%,0%,0%);stop-opacity:0.27451;"/>
<stop offset="1" style="stop-color:rgb(0%,0%,0%);stop-opacity:0;"/>
</radialGradient>
<radialGradient id="radial1" gradientUnits="userSpaceOnUse" cx="450.908936" cy="189.579361" fx="450.908936" fy="189.579361" r="21.166656" gradientTransform="matrix(0.0000000870852,0.0390662,-0.0703192,0.0000000507693,24.742282,-3.763739)">
<stop offset="0" style="stop-color:rgb(0%,0%,0%);stop-opacity:0.313725;"/>
<stop offset="0.222222" style="stop-color:rgb(0%,0%,0%);stop-opacity:0.27451;"/>
<stop offset="1" style="stop-color:rgb(0%,0%,0%);stop-opacity:0;"/>
</radialGradient>
<radialGradient id="radial2" gradientUnits="userSpaceOnUse" cx="450.908936" cy="189.579361" fx="450.908936" fy="189.579361" r="21.166656" gradientTransform="matrix(0.0000000870852,-0.0390662,-0.0703192,-0.0000000507693,24.742282,31.797666)">
<stop offset="0" style="stop-color:rgb(0%,0%,0%);stop-opacity:0.313725;"/>
<stop offset="0.222222" style="stop-color:rgb(0%,0%,0%);stop-opacity:0.27451;"/>
<stop offset="1" style="stop-color:rgb(0%,0%,0%);stop-opacity:0;"/>
</radialGradient>
<radialGradient id="radial3" gradientUnits="userSpaceOnUse" cx="450.908936" cy="189.579361" fx="450.908936" fy="189.579361" r="21.166656" gradientTransform="matrix(-0.0000000870852,0.0390662,0.0703192,0.0000000507693,-1.589028,-3.76374)">
<stop offset="0" style="stop-color:rgb(0%,0%,0%);stop-opacity:0.313725;"/>
<stop offset="0.222222" style="stop-color:rgb(0%,0%,0%);stop-opacity:0.27451;"/>
<stop offset="1" style="stop-color:rgb(0%,0%,0%);stop-opacity:0;"/>
</radialGradient>
<linearGradient id="linear0" gradientUnits="userSpaceOnUse" x1="880" y1="1695.118164" x2="880" y2="175.118134" gradientTransform="matrix(-0.00826902,0,0,0.00826902,15.876516,0)">
<stop offset="0" style="stop-color:rgb(25.882353%,64.705882%,96.078431%);stop-opacity:1;"/>
<stop offset="1" style="stop-color:rgb(39.215686%,70.980392%,96.470588%);stop-opacity:1;"/>
</linearGradient>
<linearGradient id="linear1" gradientUnits="userSpaceOnUse" x1="720.199219" y1="857.338867" x2="1200.199219" y2="857.338867" gradientTransform="matrix(1,0,0,1,0,0.000000000000014211)">
<stop offset="0" style="stop-color:rgb(87.843137%,87.843137%,87.843137%);stop-opacity:1;"/>
<stop offset="1" style="stop-color:rgb(93.333333%,93.333333%,93.333333%);stop-opacity:1;"/>
</linearGradient>
</defs>
<g id="surface1">
<path style=" stroke:none;fill-rule:nonzero;fill:url(#radial0);" d="M 11.578125 14.015625 L 10.253906 14.015625 L 10.253906 13.355469 L 11.578125 13.355469 Z M 11.578125 14.015625 "/>
<path style=" stroke:none;fill-rule:nonzero;fill:url(#radial1);" d="M 11.578125 14.015625 L 12.898438 14.015625 L 12.898438 14.679688 L 11.578125 14.679688 Z M 11.578125 14.015625 "/>
<path style=" stroke:none;fill-rule:nonzero;fill:url(#radial2);" d="M 11.578125 14.015625 L 12.898438 14.015625 L 12.898438 13.355469 L 11.578125 13.355469 Z M 11.578125 14.015625 "/>
<path style=" stroke:none;fill-rule:nonzero;fill:url(#radial3);" d="M 11.578125 14.015625 L 10.253906 14.015625 L 10.253906 14.679688 L 11.578125 14.679688 Z M 11.578125 14.015625 "/>
<path style=" stroke:none;fill-rule:nonzero;fill:url(#linear0);" d="M 7.9375 1.449219 C 11.601562 1.449219 14.554688 3.808594 14.554688 6.738281 C 14.554688 8.417969 13.585938 9.910156 12.070312 10.878906 L 12.0625 13.378906 C 12.058594 13.734375 11.84375 14.015625 11.578125 14.015625 L 11.410156 14.015625 C 10.996094 14.015625 10.6875 13.652344 9.441406 11.894531 C 8.957031 11.984375 8.457031 12.03125 7.9375 12.03125 C 4.273438 12.03125 1.324219 9.671875 1.324219 6.738281 C 1.324219 3.808594 4.273438 1.449219 7.9375 1.449219 Z M 7.9375 1.449219 "/>
<path style=" stroke:none;fill-rule:nonzero;fill:rgb(100%,100%,100%);fill-opacity:0.392157;" d="M 7.9375 1.367188 C 11.601562 1.367188 14.554688 3.726562 14.554688 6.65625 C 14.554688 6.699219 14.550781 6.738281 14.550781 6.78125 C 14.46875 3.90625 11.550781 1.613281 7.9375 1.613281 C 4.324219 1.613281 1.40625 3.90625 1.324219 6.78125 C 1.324219 6.742188 1.324219 6.699219 1.324219 6.65625 C 1.324219 3.726562 4.273438 1.367188 7.9375 1.367188 Z M 7.9375 1.367188 "/>
<path style=" stroke:none;fill-rule:nonzero;fill:rgb(0%,0%,0%);fill-opacity:0.235294;" d="M 14.550781 6.683594 C 14.554688 6.714844 14.554688 6.75 14.554688 6.78125 C 14.554688 8.460938 13.585938 9.953125 12.070312 10.921875 L 12.0625 13.421875 C 12.058594 13.773438 11.84375 14.058594 11.578125 14.058594 L 11.410156 14.058594 C 10.996094 14.058594 10.6875 13.695312 9.441406 11.9375 C 8.957031 12.027344 8.457031 12.074219 7.9375 12.074219 C 4.273438 12.074219 1.324219 9.714844 1.324219 6.78125 C 1.324219 6.75 1.324219 6.714844 1.324219 6.683594 C 1.390625 9.570312 4.3125 11.878906 7.9375 11.878906 C 8.457031 11.878906 8.957031 11.832031 9.441406 11.742188 C 10.6875 13.5 10.996094 13.863281 11.410156 13.863281 L 11.578125 13.863281 C 11.84375 13.863281 12.058594 13.578125 12.0625 13.226562 L 12.070312 10.726562 C 13.554688 9.777344 14.515625 8.324219 14.550781 6.683594 Z M 14.550781 6.683594 "/>
<path style=" stroke:none;fill-rule:nonzero;fill:rgb(12.941177%,12.941177%,12.941177%);fill-opacity:1;" d="M 7.9375 1.402344 C 11.621094 1.402344 14.597656 3.777344 14.597656 6.738281 C 14.597656 8.429688 13.628906 9.929688 12.113281 10.902344 L 12.105469 13.378906 C 12.105469 13.566406 12.046875 13.734375 11.953125 13.855469 C 11.859375 13.980469 11.726562 14.0625 11.578125 14.0625 L 11.410156 14.0625 C 11.300781 14.0625 11.195312 14.035156 11.082031 13.972656 C 10.96875 13.90625 10.851562 13.800781 10.707031 13.644531 C 10.421875 13.332031 10.035156 12.808594 9.421875 11.945312 C 8.945312 12.03125 8.449219 12.078125 7.9375 12.078125 C 4.253906 12.078125 1.277344 9.703125 1.277344 6.738281 C 1.277344 3.777344 4.253906 1.402344 7.9375 1.402344 Z M 7.9375 1.492188 C 4.292969 1.492188 1.367188 3.839844 1.367188 6.738281 C 1.367188 9.640625 4.292969 11.988281 7.9375 11.988281 C 8.453125 11.988281 8.953125 11.941406 9.433594 11.851562 L 9.460938 11.847656 L 9.476562 11.871094 C 10.101562 12.75 10.488281 13.277344 10.773438 13.585938 C 10.914062 13.738281 11.027344 13.835938 11.125 13.894531 C 11.226562 13.953125 11.3125 13.972656 11.410156 13.972656 L 11.578125 13.972656 C 11.695312 13.972656 11.804688 13.910156 11.882812 13.804688 C 11.964844 13.695312 12.015625 13.546875 12.015625 13.378906 L 12.027344 10.855469 L 12.046875 10.84375 C 13.550781 9.878906 14.507812 8.402344 14.507812 6.738281 C 14.507812 3.839844 11.585938 1.492188 7.9375 1.492188 Z M 7.9375 1.492188 "/>
<path style="fill-rule:nonzero;fill:url(#linear1);stroke-width:11.338583;stroke-linecap:square;stroke-linejoin:round;stroke:rgb(12.941177%,12.941177%,12.941177%);stroke-opacity:1;stroke-miterlimit:4;" d="M 820.132984 655.06179 C 786.592878 655.06179 760.13871 681.988354 760.13871 715.056064 C 760.13871 748.123774 786.592878 775.050338 820.132984 775.050338 C 853.200694 775.050338 880.127258 748.123774 880.127258 715.056064 C 880.127258 681.988354 853.200694 655.06179 820.132984 655.06179 Z M 1099.791332 655.06179 C 1066.723622 655.06179 1039.797058 681.988354 1039.797058 715.056064 C 1039.797058 748.123774 1066.723622 775.050338 1099.791332 775.050338 C 1133.331438 775.050338 1159.785606 748.123774 1159.785606 715.056064 C 1159.785606 681.988354 1133.331438 655.06179 1099.791332 655.06179 Z M 760.13871 935.192534 C 734.629334 947.947222 719.985062 963.06389 719.985062 979.597745 C 719.985062 1024.002955 827.218922 1059.432645 959.962158 1059.432645 C 1093.17779 1059.432645 1199.939254 1024.002955 1199.939254 979.597745 C 1199.939254 963.06389 1185.294983 947.947222 1159.785606 935.192534 C 1116.797583 962.119098 1043.576225 979.597745 959.962158 979.597745 C 876.348091 979.597745 803.126733 962.119098 760.13871 935.192534 Z M 760.13871 935.192534 " transform="matrix(0.000000000000000001,-0.00826902,0.00826902,0.000000000000000001,0.848907,14.680132)"/>
</g>
</svg>

<svg xmlns="http://www.w3.org/2000/svg" width="16pt" height="16pt" viewBox="0 0 16 16"><defs><radialGradient id="a" gradientUnits="userSpaceOnUse" cx="450.909" cy="189.579" fx="450.909" fy="189.579" r="21.167" gradientTransform="matrix(0 -.03907 .07032 0 -1.589 31.798)"><stop offset="0" stop-opacity=".314"/><stop offset=".222" stop-opacity=".275"/><stop offset="1" stop-opacity="0"/></radialGradient><radialGradient id="b" gradientUnits="userSpaceOnUse" cx="450.909" cy="189.579" fx="450.909" fy="189.579" r="21.167" gradientTransform="matrix(0 .03907 -.07032 0 24.742 -3.764)"><stop offset="0" stop-opacity=".314"/><stop offset=".222" stop-opacity=".275"/><stop offset="1" stop-opacity="0"/></radialGradient><radialGradient id="c" gradientUnits="userSpaceOnUse" cx="450.909" cy="189.579" fx="450.909" fy="189.579" r="21.167" gradientTransform="matrix(0 -.03907 -.07032 0 24.742 31.798)"><stop offset="0" stop-opacity=".314"/><stop offset=".222" stop-opacity=".275"/><stop offset="1" stop-opacity="0"/></radialGradient><radialGradient id="d" gradientUnits="userSpaceOnUse" cx="450.909" cy="189.579" fx="450.909" fy="189.579" r="21.167" gradientTransform="matrix(0 .03907 .07032 0 -1.589 -3.764)"><stop offset="0" stop-opacity=".314"/><stop offset=".222" stop-opacity=".275"/><stop offset="1" stop-opacity="0"/></radialGradient><linearGradient id="e" gradientUnits="userSpaceOnUse" x1="880" y1="1695.118" x2="880" y2="175.118" gradientTransform="matrix(-.00827 0 0 .00827 15.877 0)"><stop offset="0" stop-color="#42a5f5"/><stop offset="1" stop-color="#64b5f6"/></linearGradient><linearGradient id="f" gradientUnits="userSpaceOnUse" x1="720.199" y1="857.339" x2="1200.199" y2="857.339"><stop offset="0" stop-color="#e0e0e0"/><stop offset="1" stop-color="#eee"/></linearGradient></defs><path d="M11.578 14.016h-1.324v-.66h1.324zm0 0" fill="url(#a)"/><path d="M11.578 14.016h1.32v.664h-1.32zm0 0" fill="url(#b)"/><path d="M11.578 14.016h1.32v-.66h-1.32zm0 0" fill="url(#c)"/><path d="M11.578 14.016h-1.324v.664h1.324zm0 0" fill="url(#d)"/><path d="M7.938 1.45c3.664 0 6.617 2.359 6.617 5.288 0 1.68-.97 3.172-2.485 4.14l-.008 2.5c-.003.356-.218.638-.484.638h-.168c-.414 0-.723-.364-1.969-2.121a8.22 8.22 0 0 1-1.504.136c-3.664 0-6.613-2.36-6.613-5.293 0-2.93 2.95-5.289 6.614-5.289zm0 0" fill="url(#e)"/><path d="M7.938 1.367c3.664 0 6.617 2.36 6.617 5.29 0 .042-.004.081-.004.124-.082-2.875-3-5.168-6.614-5.168-3.613 0-6.53 2.293-6.613 5.168v-.125c0-2.93 2.95-5.289 6.614-5.289zm0 0" fill="#fff" fill-opacity=".392"/><path d="M14.55 6.684a.816.816 0 0 1 .005.097c0 1.68-.97 3.172-2.485 4.14l-.008 2.5c-.003.352-.218.638-.484.638h-.168c-.414 0-.723-.364-1.969-2.121a8.22 8.22 0 0 1-1.504.136c-3.664 0-6.613-2.36-6.613-5.293v-.097c.067 2.886 2.988 5.195 6.614 5.195.519 0 1.019-.047 1.503-.137 1.246 1.758 1.555 2.121 1.97 2.121h.167c.266 0 .48-.285.485-.636l.007-2.5c1.485-.95 2.446-2.403 2.48-4.043zm0 0" fill-opacity=".235"/><path d="M7.938 1.402c3.683 0 6.66 2.375 6.66 5.336 0 1.692-.97 3.192-2.485 4.164l-.008 2.477a.78.78 0 0 1-.152.476.475.475 0 0 1-.375.207h-.168a.661.661 0 0 1-.328-.09 1.741 1.741 0 0 1-.375-.327c-.285-.313-.672-.836-1.285-1.7a8.359 8.359 0 0 1-1.485.133c-3.683 0-6.66-2.375-6.66-5.34 0-2.96 2.977-5.336 6.66-5.336zm0 .09c-3.645 0-6.57 2.348-6.57 5.246 0 2.903 2.925 5.25 6.57 5.25.515 0 1.015-.047 1.496-.136l.027-.004.016.023c.625.879 1.011 1.406 1.296 1.715.141.152.254.25.352.309a.534.534 0 0 0 .285.078h.168a.383.383 0 0 0 .305-.168.709.709 0 0 0 .133-.426l.011-2.524.02-.011c1.504-.965 2.46-2.442 2.46-4.106 0-2.898-2.921-5.246-6.57-5.246zm0 0" fill="#212121"/><path d="M820.133 655.062c-33.54 0-59.994 26.926-59.994 59.994s26.454 59.994 59.994 59.994c33.068 0 59.994-26.926 59.994-59.994s-26.926-59.994-59.994-59.994zm279.658 0c-33.067 0-59.994 26.926-59.994 59.994s26.927 59.994 59.994 59.994c33.54 0 59.995-26.926 59.995-59.994s-26.455-59.994-59.995-59.994zM760.14 935.192c-25.51 12.755-40.154 27.872-40.154 44.406 0 44.405 107.234 79.835 239.977 79.835 133.216 0 239.977-35.43 239.977-79.835 0-16.534-14.644-31.65-40.153-44.405-42.988 26.926-116.21 44.405-199.824 44.405-83.614 0-156.835-17.479-199.823-44.405zm0 0" transform="rotate(-90 7.765 6.916) scale(.00827)" fill="url(#f)" stroke-width="11.339" stroke-linecap="square" stroke-linejoin="round" stroke="#212121"/></svg>
